build/communication/WhatsUpSolid.svg

<svg xmlns="http://www.w3.org/2000/svg" fill="none" viewBox="0 0 24 24" focusable="false"><path d="M0 0H24V24H0z"/><path fill="#74767B" fill-rule="evenodd" d="M18.3773 5.62828C16.6855 3.93425 14.4353 3.00086 12.0378 3C7.09755 3 3.07692 7.0202 3.0752 11.9618C3.07434 13.5415 3.48732 15.0834 4.2716 16.4422L3 21.0868L7.75118 19.8406C9.06015 20.5548 10.5341 20.9308 12.034 20.9313C16.9734 20.9313 20.9983 16.9106 21 11.9691C21.0009 9.57415 20.0696 7.32231 18.3773 5.62828ZM12.0378 19.4177C10.7013 19.4173 9.3872 19.058 8.24325 18.3795L7.97121 18.2179L5.1517 18.9575L5.90417 16.2084L5.72712 15.9265C4.98152 14.7405 4.58745 13.3696 4.58831 11.9622C4.59003 7.85518 7.93167 4.51354 12.0408 4.51354C14.0305 4.5144 15.9008 5.29008 17.3072 6.69833C18.7138 8.10615 19.4878 9.9781 19.4869 11.9682C19.4852 16.0757 16.1436 19.4177 12.0378 19.4177ZM16.1238 13.8389C15.8999 13.7267 14.7989 13.1852 14.5935 13.1105C14.3881 13.0357 14.239 12.9983 14.0898 13.2226C13.9407 13.447 13.5114 13.9515 13.3808 14.1006C13.2501 14.2501 13.1194 14.2686 12.8955 14.1564C12.6717 14.0443 11.9502 13.8079 11.0946 13.0451C10.4289 12.4512 9.97935 11.7181 9.84875 11.4938C9.7181 11.2695 9.835 11.1483 9.9467 11.037C10.0473 10.9364 10.1706 10.7753 10.2828 10.6446C10.3949 10.514 10.4319 10.4203 10.5066 10.2712C10.5814 10.1216 10.5441 9.991 10.4882 9.8788C10.4323 9.76665 9.98455 8.66435 9.7976 8.21615C9.6158 7.77955 9.43105 7.83885 9.29395 7.83155C9.1633 7.8251 9.0142 7.82381 8.86465 7.82381C8.7151 7.82381 8.4727 7.87968 8.2673 8.104C8.0619 8.3283 7.48345 8.8702 7.48345 9.97205C7.48345 11.0739 8.2858 12.1393 8.39795 12.2888C8.5101 12.4384 9.9772 14.7001 12.2234 15.6704C12.7577 15.9012 13.1749 16.0391 13.5002 16.1423C14.0365 16.3129 14.5247 16.2888 14.9106 16.2312C15.3408 16.1668 16.2355 15.6893 16.422 15.1663C16.6085 14.6433 16.6085 14.1947 16.5527 14.1014C16.4968 14.0082 16.3477 13.951 16.1238 13.8389Z"/></svg>

<svg xmlns="http://www.w3.org/2000/svg" fill="none" viewBox="0 0 24 24" focusable="false"><path fill="none" d="M0 0h24v24H0z"/><path fill="#74767B" fill-rule="evenodd" d="M18.37 5.62A8.9 8.9 0 0 0 12.03 3c-4.94 0-8.96 4.02-8.96 8.96 0 1.58.41 3.12 1.2 4.48L3 21.08l4.75-1.24c1.31.71 2.78 1.09 4.28 1.09 4.94 0 8.96-4.02 8.97-8.97 0-2.39-.94-4.64-2.63-6.34m-6.34 13.79c-1.33 0-2.65-.36-3.79-1.04l-.27-.16-2.82.74.75-2.75-.18-.28a7.5 7.5 0 0 1-1.14-3.96c.01-4.11 3.35-7.45 7.46-7.45 1.99 0 3.86.78 5.26 2.18a7.4 7.4 0 0 1 2.18 5.27c0 4.11-3.34 7.45-7.45 7.45m4.09-5.58c-.23-.11-1.33-.65-1.53-.72-.21-.08-.36-.12-.51.11-.14.22-.57.73-.7.88s-.27.16-.49.05-.94-.35-1.8-1.11c-.67-.59-1.12-1.33-1.25-1.55-.13-.23-.01-.35.1-.46.1-.1.23-.26.34-.39s.15-.22.22-.37c.08-.15.04-.28-.02-.4-.05-.11-.5-1.21-.69-1.66-.18-.44-.36-.38-.5-.38-.13-.01-.28-.01-.43-.01s-.39.05-.6.28c-.2.22-.78.77-.78 1.87s.8 2.16.91 2.31c.12.15 1.58 2.42 3.83 3.39.53.23.95.36 1.28.47.53.17 1.02.14 1.41.09.43-.07 1.32-.55 1.51-1.07.18-.52.18-.97.13-1.06-.06-.1-.21-.15-.43-.27"/></svg>
